X: 1
T: Petronella
I: RJ R-13 D reel
M: C|
R: reel
K: D
|: dA |:\
"D"F2AF "A"E2AF | "D"D2D2 D2FA |\
[1,3 d2cd "E"e2d2 | "A"cdBc A2 :|\
[2,4 d2cd "A"e2c2 | "D"d6 :|
|: dA |:\
"D"F2fd "D7"A2af | "G"g2gf "Em"edcB |\
[1,3 "A"A2ec A2ge | "D"f2fd AdAF :|\
[2,4 "A"A2ec Agec | "D"d6 :|
% text Roaring Jelly  R-13


